Yaru++/mimetypes/16/office-spreadsheet.svg

<svg height="16" width="16" xmlns="http://www.w3.org/2000/svg">
  <path d="m.2265625 3.1367188v.5 12.1367192h15.5468755v-12.6367192zm1 1h13.5468755v10.6367192h-13.5468755zm5.3183594.9550781v8.7265621h2.9101562v-8.7265621zm-4.3632813 1.453125v7.2734371h2.9101563v-7.2734371zm8.7265624 2.9101562v4.3632809h2.910156v-4.3632809z" fill="#808080" transform="matrix(1.02914572 0 0 1.02914572 -.233166 -1.233166)"/>
</svg>

<svg xmlns="http://www.w3.org/2000/svg" width="16" height="16" version="1.1">
 <g style="enable-background:new" transform="matrix(0.1871174,0,0,0.1871174,-25.681132,-25.184193)">
  <path style="fill:#808080" d="m 0.2265625,3.1367188 v 0.5 12.1367192 H 15.773438 V 3.1367188 Z m 1,1 H 14.773438 V 14.773438 H 1.2265625 Z M 6.5449219,5.0917969 V 13.818359 H 9.4550781 V 5.0917969 Z M 2.1816406,6.5449219 V 13.818359 H 5.0917969 V 6.5449219 Z m 8.7265624,2.9101562 v 4.3632809 h 2.910156 V 9.4550781 Z" transform="matrix(5.5000001,0,0,5.5000001,136,128)"/>
 </g>
</svg>
